-----BEGIN PGP MESSAGE-----

hF4DvCZRZsgIE14SAQdAVbU6CijgQl3Y4woAb/2bvc0YX0xSwX/iedMlRWdmIVEw
gg6cAnOP8cflLtFcNppKyD7smze1ZnATpUd9XkFze7ui4RZjsE15D8OkozQjk+1W
0uoBCQV0kng9CZwgc2xS0EdE0f+FF8va2RvGhPpvilpiOkG6p5DpoyXf9QzAaTc3
y38wYsLeSRp/Bxg85b2dZW8MNAhwXL8j3StIQGhEggydQsLUTtuqNbswj+gLtLeg
peCO9iMHQUXAFrwf93V1cZ9HFVKRfJ+F2wMvxaDv5CfGGzgmyekfqbglMxybPzDn
oNVQa1d1szgpl0wseqg+Sw6atHrGDScECsYouy7tkdd1GEUS1+dLEWMMb7mNwu8X
+FKjd1Nwl5OHwl3xWQzma6cIVxQSAP+OHRYW2EUXVZbqxT4TzCaLZytsnfGMxxw5
9VjmO7nEm0O5sa+0AptBWmoIS0HbOXmj9EY8cVq0j1VYXOnbFBL4seK6CEek/QxS
oCnMKKdXkptqKV3hqqC+WLNu7z5rVEkub9qVxAk9gZXiUDR1NjiGotBXzKpMIV5o
t4Eq9rGK3CP/G+ahl7uIpq/azlBfAvgjmI/rreTtWj3FsVT0hTTADqnlRnSp1uL5
MGm0vGUpbBJev9KIIZp6pTGHQCq4W5HyL7iT9BHk2x1Y61qdMywS0gHsSkhlnVEp
OtRnAAFxPem6IuGQCUj6g0Nu2xRNhgE1ZQDIZhGOom6wRGK90JUsXsJx1OpLD6bu
0sZyE/4sttdwiKYXmHbSO9oj41Iyrrh8qhRyUkkkFbH421Av3aB1dTNWEzJ5C8i5
Ti7NpDVgm33YenPrDFolFF/x4e6rDMQlx2WGpYMuHuzn/2nCtrx3GcfpGAalzv9U
6WmK8/rapItJQT0e4Af3eYk3OgJGrDUCT0lZo1b0yZfj+6KZ9biwZgOdd+2vwFF8
HQcjHYvuYQ75k2uZpFsvqRhLAbzY5BHve+DC6tGs9WmUoIs4loVTirqLLNfyEdTu
w2jucM8vyYt3cgpFrUgFSYsU+6VCy4qWx8em3tMwDfSRAmQ2ToMCYpN5k3oxVs5e
FpouBIFa67jP7ZxtwYeMrhj1gIgW40csVxZJ2p40xC9e0NcV8gwqrYdbWXpLiIOR
MYUws2B2+mQHDnvoCllaF5WCA/e20s3dU2Uhl+xek+vx8nN+IkyfJbh/OSxn3MEf
6uNacfV+09lvz46I3Pc5DcZIFmbHHbIbhy1/67wYt8w3KfuD7rf7YDjtDAHVI6zh
sOM35HMvg6DvviuIJznqjMmWLep4RlIEzNu0MG5M0sHeV6kqXc8et/UmgGTm4FaL
IBjbxZlcf1pYVu0I95OhdJtfWCVTJCKHZFi8SasPnU+z7TrcTjLQC8qtJrmng7oT
eGA8ZJD1QfK8t+nyBYBbOEfDPdvMpqxVQHN2frm1rZxHrcurYlrVdLU8AgfRioaL
yHLZDM0tAB/8OeXfU80mtTMt6vw8ocJFHx4vKszbp00j6RqTKVLS3cM6f2eMUtrQ
s4u2p5w+oVg+fc4NgjgUVBw+iepZHO+kr+E7lcZ+BT2N7BCfDzUb1b0rzGcpO0vv
lN+Qhpn8uxg/hM2/Jpxpz8gbm2/dPeLIxHzeja0ejsNst8808TifowbUO6hNUdgN
Xgw//I8K6SnJ0GhohnMuyJg4v2Ft5LTDUZaMvcah4Fw+j7EcZbvU1HlF0MvONZcs
52DSP1QqNba5Y5ebO56vloQulCQYv1mcI4oo4QFTAin9vfL1PvLoTbGNXI3IWxd2
CSiLfriUsQHv2V+czdY3ENaR/Euxy/tO0gGB6PPpacNd6EY+KnDS7/WZjJa0Yw+Q
Zs6d8KFHCxoXabX1egQWp/8EiQ4+1z9gqRWg1kEgpHvLb1EBwPKhk2YIh2d2lOKx
9sZ07KkdGJ4C+ff5cs9UtJITqG/xs66pmX3XwK4hCIMiiYDjW45uqmgqaYP4Lxt5
OA6FsVEZz+PdMGiFVYjlqtgdUUJ3LMXZFIgAu/CyN2mpGnEgAqDA9ckRSvCuCcMI
dZlg1h3HmjGpj0BWtsU33LGNbQ1EwSY/s432mUbWc4VlT1IcE6XQqTPFhhwbMzxN
Z34/mWttNPfL0urcfx0jksysUuo/SMrKIyilhzrh0QbXcwEE9w9IAEkAl//19rf3
3+RU/gtH2lC1bwFWi9tELTij4W7OmGX7C4WIELmH5wtfRpO4YrqAbAVxXJOx9ldf
hzoAuliM5l8Ykwm5ErXRPYpis5V6duONqIQdEBqYMhaiH2sgU4sTcASM9Ji+GGev
85YWyJy8yXN6Y/95BTLqJNDHUR05mZvQNaDXpmlvHyQyXn/tC0tujEJuo2pQA/mA
tPOQ4WeSkDCFClz+8vftZ0q6xol0ou2073Ao8SSdU0jc9BowYEbTLwxQ/pSbDT7u
aijeAsXE6JxxtevC8K2GarmIMDkbMrxOUIndX2Ubxa8DEVdu18z5KbQVKULEywdt
Ykfx3hcc9sOC02AijaVzW6N+b34nKG9i1RGrJleq/CPa/IkW8MbptgnZ6e8pNhDH
Wy14bUQIUGuAhleP5dycpDY6zygiCrmrdh5caEZ4jaqMKw2k0mn+Xo4j9ln9YSma
ESj3gG27ij7uY9x2rSO8ocKsYaJNyXpIJH2iuRJtU2OiQfJnl4+hMjnHaLSKDSaW
GdyMcGkyvK63b50MKam83A2UjDwf3q9qpzJLDE7DF9/8FBYRo9BS9IPEqPUe+SYe
tXoIdHHlH+z6X5rN8kkbravopOJlhXloOypCOs4+rcXi5f/i0uXI528+uZk1xMrh
nsjnI1lAgks41M44TAgkuZS5m3xaBgEysE5bWY6Abvl1evHpDGcJlH3OZA1K8Ifi
TdHOwgT/JsR/K3sy1lkXpUEHDeF4yTmPqGm388dfNEgCU4tSraufzMrohTQDLzlK
H5xReRbaVnzDBA9ofEsfPhQEV5sz3aCtW3RutNmPoxYaDa5HQngH/QbSBXkJ4cfG
3JHcAKkqKE+nGFPqvWJMX87lhenhlLB1bvB/hv6mVYSCDPp7tzsPo75LZT9ZlzC6
YjHFSEmDKyUs1wljVFs4X2ojAoYVXpWe02fPlWsO30BCd1b4ifCKy+zRhC7kNDKM
47tir18kH34ZCdDhdVDHw6/sNYa/4xazoTo3R9KorcI4PPboTeKSP0UhXk1t4lgD
93z+eIt+n4ItIU1ng2EeCUyByhyYB2l442gQu1edUMPy66/0uMXd5jwS5vTNwtpI
NNYUWvqIzxeUHPgq/x7bFMqylpzcFVV4/ZGkv+YR/Lr82UEyBDN3LnUXiDGkVZ12
q8FRlSJoOdPEVHQ5iThmjb0824ayZdPWoa3AkJiEgETwdmk4P/3UTburqb+lWq3e
cIGLSViVq5BLftnNpCMOVUMQFeefbU75tVw+bBDautwaP3nTS0SV7Scs6xuNXl5i
s3FV8HWDZTEStbrevMJ22DpsGDcGfr/qlgZbIq7DmhDziFUcq/X0FNJDmHMiTFbZ
rTcclZ47uJW1jHDiwIUAuo74auBuXtENl04xq47DvMYZfCLwE2Eo82VjY6AyX+e8
MjNWsPSrc2kMfTL9LJA1aKvYC5UVxIGstPr42T4k+1gfCmyneAkCx+UVsmHYY7+x
Rb3kXwXwVqJ3LCShw0uxXK6ru04Bbfx4034ns2q7PYCFuWw=
=7TsN
-----END PGP MESSAGE-----
